src/22/actions/system-switch-user.svg

<svg xmlns="http://www.w3.org/2000/svg" viewBox="0 0 22 22">
  <defs id="defs3051">
    <style type="text/css" id="current-color-scheme">
      .ColorScheme-Text {
        color:#5d656b;
      }
      </style>
  </defs>
    <path 
     style="fill:currentColor;fill-opacity:1;stroke:none" 
     id="path890-3"
     d="m 11.38212,2.388 c -1.989467,0 -3.220562,1.263525 -3.397744,2.799 V 6.205 L 5.8333441,4.684817 4.9843762,5.347854 7.5312808,7.336963 8.380249,8 9.229216,7.336963 11.776121,5.347854 10.927153,4.684817 8.984376,6.205 V 5.187 c 0,-1.035581 1.06462,-1.798637 2.397544,-1.799 1.332927,3.63e-4 2.621,0.763585 2.602456,1.799 V 6 h 1 V 5.186673 C 14.984376,3.641009 13.371591,2.388 11.382123,2.388 Z M 13.984376,7 c -1.10457,0 -2,0.895431 -2,2 0,1.10457 0.89543,2 2,2 1.104569,0 2,-0.89543 2,-2 0,-1.104569 -0.895431,-2 -2,-2 z M 7.984375,9 a 1.999999,2 0 0 0 -2,2 1.999999,2 0 0 0 2,2 1.999999,2 0 0 0 2,-2 1.999999,2 0 0 0 -2,-2 z M 14,12 c -1.518796,0 -2.764244,1.163057 -2.978516,2.671875 C 11.604353,15.334017 11.984375,16 11.984375,17 v 0 H 14 h 1.8125 0.601563 c 0.393221,-0.54062 0.60674,-1.198565 0.607421,-1.875 C 17.021485,13.39911 15.669244,12 14,12 Z m -0.04883,1 c 1.102577,0 1.996096,0.839466 1.996094,1.875 -4.5e-4,0.405861 -0.14066,0.800628 -0.400391,1.125 H 15.148435 13.95117 12.751951 12.726561 C 12.640916,15.461489 12.369372,14.980111 11.984375,14.601562 12.125907,13.696272 12.947971,13 13.951172,13 Z m -5.966795,1 a 2.9999989,3.1249983 0 0 0 -3,3.125 A 2.9999989,3.1249983 0 0 0 5.589844,19 h 0.59375 1.800781 1.800781 0.597657 a 2.9999989,3.1249983 0 0 0 0.601562,-1.875 2.9999989,3.1249983 0 0 0 -3,-3.125 z m 0,1 a 2.0000009,2.2500008 0 0 1 2,2.25 A 2.0000009,2.2500008 0 0 1 9.867187,18 H 6.101563 a 2.0000009,2.2500008 0 0 1 -0.117188,-0.75 2.0000009,2.2500008 0 0 1 2,-2.25 z" 
     class="ColorScheme-Text"
     />
</svg>

<svg xmlns="http://www.w3.org/2000/svg" viewBox="0 0 22 22"><path d="M11.382 2.388c-1.99 0-3.22 1.264-3.398 2.799v1.018l-2.15-1.52-.85.663 2.547 1.989.85.663.848-.663 2.547-1.99-.849-.662-1.943 1.52V5.187c0-1.036 1.065-1.799 2.398-1.799 1.333 0 2.62.764 2.602 1.799V6h1v-.813c0-1.546-1.612-2.799-3.602-2.799zM13.984 7a2 2 0 1 0 0 4 2 2 0 0 0 0-4zm-6 2a2 2 0 0 0-2 2 2 2 0 0 0 2 2 2 2 0 0 0 2-2 2 2 0 0 0-2-2zM14 12c-1.519 0-2.764 1.163-2.979 2.672.583.662.963 1.328.963 2.328h4.43c.393-.54.607-1.199.607-1.875C17.021 13.399 15.67 12 14 12zm-.049 1c1.103 0 1.996.84 1.996 1.875 0 .406-.14.8-.4 1.125h-2.82a2.525 2.525 0 0 0-.743-1.398c.142-.906.964-1.602 1.967-1.602zm-5.967 1a3 3.125 0 0 0-3 3.125A3 3.125 0 0 0 5.59 19h4.793a3 3.125 0 0 0 .601-1.875 3 3.125 0 0 0-3-3.125zm0 1a2 2.25 0 0 1 2 2.25 2 2.25 0 0 1-.117.75H6.102a2 2.25 0 0 1-.118-.75 2 2.25 0 0 1 2-2.25z" fill="currentColor" color="#5d656b"/></svg>
